X:740
%%etbk:tnset id:485,pos:2,rep:3x,ant:
%%etbk:wsite https://thesession.org/tunes/910
%%etbk:video src:ytube,cde:2p0Igh5EXjk,desc:
%%etbk:pldat 2015-10-17T14:20,2015-10-14T16:28,2015-10-12T18:49,2015-10-06T17:25,2015-09-29T16:43,2015-09-10T17:02,2015-09-07T18:51,2015-09-02T17:17,2015-09-01T17:25,2015-08-31T19:13,2015-08-30T15:30,2015-08-23T15:34,2015-08-19T15:48,2015-08-18T16:26,2015-08-17T18:31,2015-06-13T17:09,2015-06-06T16:15,2015-06-04T18:21,2015-05-31T14:27,2015-05-23T16:54
T: Windbroke
Z: Piano Box Version by Martin Fleischmann
H: Created 2015-05-23 /  Last Modified 2015-08-18
R: reel
M: 4/4
L: 1/8
K: Emin
|:"em"!4!BE EE !2!GAB!1!E|-E!2!G!3!A!5!d !4!B2AG|BEEE GAB!5!c|"bm"-cBAG B2AG|
"em"BE EE GAB(E|E)GAd !4!B2!1!AB|!5!edde !2!B3!1!G|1 "bm"!2!A3G !2!FGA!4!c:|2 "bm"!2!A2 AG !2!F!4!G!4!A2||
|:"em"!1!B!3!e!5!gf efd.e|z!3!edf !3!efed|!1!B!3!eg!4!f !1!efg.!4!a|"bm"z!4!a2 g !2!f!1!e!2!d!3!e|
"em"Begf efd.e|zedf efeB|1 "am"!3!c3A !3!B3G|"bm"!2!A2AG !2!F!3!G!4!A2:|2 "am"!3!c8- |cd !3!(3cB!1!A !2!F!1!GA!4!c||


